X: 14267
T: Gabe Sullivan's
R: reel
M: 4/4
K: Gmajor
egdB A2GA|BGG2 A2GA|BcAB GEDG|EAA2 A2Bd|
eBdB A2AG|BGGB A2GA|BcAB GEDG|EGGF GABd||
eggf gagd|eaag a2ge|dega bgg2|abge d2Bd|
eggf gagd|eaag a2ga|bc'bg agfg|edef g2fg||

